src/48/apps/multimedia-video-player.svg

<?xml version="1.0" encoding="UTF-8" standalone="no"?>
<svg
   xmlns:dc="http://purl.org/dc/elements/1.1/"
   xmlns:cc="http://creativecommons.org/ns#"
   xmlns:rdf="http://www.w3.org/1999/02/22-rdf-syntax-ns#"
   xmlns:svg="http://www.w3.org/2000/svg"
   xmlns="http://www.w3.org/2000/svg"
   xmlns:sodipodi="http://sodipodi.sourceforge.net/DTD/sodipodi-0.dtd"
   xmlns:inkscape="http://www.inkscape.org/namespaces/inkscape"
   id="svg4296"
   height="48"
   width="48"
   version="1.1"
   sodipodi:docname="multimedia-video-player.svg"
   inkscape:version="0.92.4 (5da689c313, 2019-01-14)">
  <sodipodi:namedview
     pagecolor="#ffffff"
     bordercolor="#666666"
     borderopacity="1"
     objecttolerance="10"
     gridtolerance="10"
     guidetolerance="10"
     inkscape:pageopacity="0"
     inkscape:pageshadow="2"
     inkscape:window-width="1366"
     inkscape:window-height="697"
     id="namedview54"
     showgrid="false"
     inkscape:zoom="2.4583333"
     inkscape:cx="-17.36984"
     inkscape:cy="58.435757"
     inkscape:window-x="0"
     inkscape:window-y="0"
     inkscape:window-maximized="1"
     inkscape:current-layer="svg4296" />
  <defs
     id="defs4298" />
  <metadata
     id="metadata4301">
    <rdf:RDF>
      <cc:Work
         rdf:about="">
        <dc:format>image/svg+xml</dc:format>
        <dc:type
           rdf:resource="http://purl.org/dc/dcmitype/StillImage" />
        <dc:title />
      </cc:Work>
    </rdf:RDF>
  </metadata>
  <path
     id="rect5505-21-3-8-5-2"
     d="M 3,8.5 C 2.169,8.5 1.5,9.169 1.5,10 l 0,27 45,0 0,-27 C 46.5,9.169 45.831,8.5 45,8.5 Z"
     style="color:#000000;display:inline;overflow:visible;visibility:visible;opacity:1;fill:#e34749;fill-opacity:1;fill-rule:nonzero;stroke:none;stroke-width:0.99999994;marker:none;enable-background:accumulate" />
  <path
     id="rect5505-21-3-8-9-1-1"
     d="M 3,8 C 1.9006486,8 1,8.9006486 1,10 L 1,37 2,37 2,10 C 2,9.4373514 2.4373514,9 3,9 l 42,0 c 0.562649,0 1,0.4373514 1,1 l 0,27 1,0 0,-27 C 47,8.9006486 46.099351,8 45,8 Z"
     style="color:#000000;font-style:normal;font-variant:normal;font-weight:normal;font-stretch:normal;font-size:medium;line-height:normal;font-family:sans-serif;text-indent:0;text-align:start;text-decoration:none;text-decoration-line:none;text-decoration-style:solid;text-decoration-color:#000000;letter-spacing:normal;word-spacing:normal;text-transform:none;direction:ltr;block-progression:tb;writing-mode:lr-tb;baseline-shift:baseline;text-anchor:start;white-space:normal;clip-rule:nonzero;display:inline;overflow:visible;visibility:visible;opacity:0.35;isolation:auto;mix-blend-mode:normal;color-interpolation:sRGB;color-interpolation-filters:linearRGB;solid-color:#000000;solid-opacity:1;fill:#7a0000;fill-opacity:1;fill-rule:nonzero;stroke:none;stroke-width:1;stroke-linecap:round;stroke-linejoin:round;stroke-miterlimit:4;stroke-dasharray:none;stroke-dashoffset:0;stroke-opacity:1;marker:none;color-rendering:auto;image-rendering:auto;shape-rendering:auto;text-rendering:auto;enable-background:accumulate" />
  <path
     id="rect4330"
     d="m 46.5,37 0,6 c 0,0.831 -0.669,1.5 -1.5,1.5 l -42,0 C 2.169,44.5 1.5,43.831 1.5,43 l 0,-6 z"
     style="color:#000000;display:inline;overflow:visible;visibility:visible;opacity:1;fill:#333c40;fill-opacity:1;fill-rule:nonzero;stroke:none;stroke-width:0.99999994;marker:none;enable-background:accumulate" />
  <path
     id="path4332"
     d="m 1,37 0,6 c 0,1.099351 0.900649,2 2,2 l 42,0 c 1.099351,0 2,-0.900649 2,-2 l 0,-6 -1,0 0,6 c 0,0.562649 -0.437351,1 -1,1 L 3,44 C 2.437351,44 2,43.562649 2,43 l 0,-6 z"
     style="color:#000000;font-style:normal;font-variant:normal;font-weight:normal;font-stretch:normal;font-size:medium;line-height:normal;font-family:sans-serif;text-indent:0;text-align:start;text-decoration:none;text-decoration-line:none;text-decoration-style:solid;text-decoration-color:#000000;letter-spacing:normal;word-spacing:normal;text-transform:none;direction:ltr;block-progression:tb;writing-mode:lr-tb;baseline-shift:baseline;text-anchor:start;white-space:normal;clip-rule:nonzero;display:inline;overflow:visible;visibility:visible;opacity:0.35;isolation:auto;mix-blend-mode:normal;color-interpolation:sRGB;color-interpolation-filters:linearRGB;solid-color:#000000;solid-opacity:1;fill:#000000;fill-opacity:1;fill-rule:nonzero;stroke:none;stroke-width:1;stroke-linecap:round;stroke-linejoin:round;stroke-miterlimit:4;stroke-dasharray:none;stroke-dashoffset:0;stroke-opacity:1;marker:none;color-rendering:auto;image-rendering:auto;shape-rendering:auto;text-rendering:auto;enable-background:accumulate" />
  <rect
     ry="0.46273786"
     y="40"
     x="4"
     height="1"
     width="40"
     id="rect4497"
     style="opacity:0.4;fill:#000000;fill-opacity:1;stroke:none;stroke-width:2;stroke-linecap:round;stroke-linejoin:round;stroke-miterlimit:4;stroke-dasharray:none;stroke-opacity:1" />
  <path
     style="color:#000000;display:inline;overflow:visible;visibility:visible;fill:#444f54;fill-opacity:1;fill-rule:nonzero;stroke:none;stroke-width:1;marker:none;enable-background:accumulate"
     id="path2555-7-1-9-4"
     d="m 16.5,38.5 c 1.103532,0 2,0.896469 2,2 0,1.103532 -0.896468,2 -2,2 -1.103531,0 -2.000002,-0.896468 -2,-2 0,-1.103531 0.896469,-2 2,-2 z" />
  <path
     style="color:#000000;display:inline;overflow:visible;visibility:visible;opacity:1;fill:none;stroke:#242424;stroke-width:1;stroke-linecap:round;stroke-linejoin:round;stroke-miterlimit:4;stroke-dasharray:none;stroke-dashoffset:0;stroke-opacity:1;marker:none;enable-background:accumulate"
     id="path2555-7-1-9-9-41"
     d="m 16.5,38.5 c 1.103532,0 2,0.896469 2,2 0,1.103532 -0.896468,2 -2,2 -1.103531,0 -2.000002,-0.896468 -2,-2 0,-1.103531 0.896469,-2 2,-2 z" />
  <path
     transform="matrix(0.99922399,0,0,0.99901247,0.01396816,0.05591213)"
     d="M 18.40625,16.96875 A 0.49810085,0.49810085 0 0 0 18,17.46875 l 0,13 a 0.49810085,0.49810085 0 0 0 0.75,0.4375 l 12,-6.5 a 0.49810085,0.49810085 0 0 0 0,-0.875 l -12,-6.5 a 0.49810085,0.49810085 0 0 0 -0.34375,-0.0625 z"
     id="path3957"
     style="fill:#fafafa;fill-opacity:1;fill-rule:evenodd;stroke:none" />
</svg>

<svg xmlns="http://www.w3.org/2000/svg" height="48" width="48"><path d="M3 8.5c-.831 0-1.5.669-1.5 1.5v27h45V10c0-.831-.669-1.5-1.5-1.5z" style="marker:none" color="#000" overflow="visible" fill="#e34749"/><path d="M3 8c-1.1 0-2 .9-2 2v27h1V10c0-.563.437-1 1-1h42c.563 0 1 .437 1 1v27h1V10c0-1.1-.9-2-2-2z" style="line-height:normal;text-indent:0;text-align:start;text-decoration-line:none;text-decoration-style:solid;text-decoration-color:#000;text-transform:none;block-progression:tb;white-space:normal;isolation:auto;mix-blend-mode:normal;solid-color:#000;solid-opacity:1;marker:none" color="#000" font-weight="400" font-family="sans-serif" overflow="visible" opacity=".35" fill="#7a0000"/><path d="M46.5 37v6c0 .831-.669 1.5-1.5 1.5H3c-.831 0-1.5-.669-1.5-1.5v-6z" style="marker:none" color="#000" overflow="visible" fill="#333c40"/><path d="M1 37v6c0 1.1.9 2 2 2h42c1.1 0 2-.9 2-2v-6h-1v6c0 .563-.437 1-1 1H3c-.563 0-1-.437-1-1v-6z" style="line-height:normal;text-indent:0;text-align:start;text-decoration-line:none;text-decoration-style:solid;text-decoration-color:#000;text-transform:none;block-progression:tb;white-space:normal;isolation:auto;mix-blend-mode:normal;solid-color:#000;solid-opacity:1;marker:none" color="#000" font-weight="400" font-family="sans-serif" overflow="visible" opacity=".35"/><rect ry=".463" y="40" x="4" height="1" width="40" opacity=".4"/><path style="marker:none" d="M16.5 38.5c1.104 0 2 .896 2 2s-.896 2-2 2-2-.896-2-2 .896-2 2-2z" color="#000" overflow="visible" fill="#444f54"/><path style="marker:none" d="M16.5 38.5c1.104 0 2 .896 2 2s-.896 2-2 2-2-.896-2-2 .896-2 2-2z" color="#000" overflow="visible" fill="none" stroke="#242424" stroke-linecap="round" stroke-linejoin="round"/><path d="M18.406 17.008a.498.498 0 0 0-.406.5v12.987a.498.498 0 0 0 .75.437l11.99-6.494a.498.498 0 0 0 0-.874L18.75 17.07a.498.498 0 0 0-.344-.062z" fill="#fafafa" fill-rule="evenodd"/></svg>
